X: 291
T: Martin Kirwan's March
M: 4/4
L: 1/8
R: reel
K: G
D2 |: G3A BABc | d2 g2 d3 c | B2 G2 G2 AB | c2 A2 A2 d2 |
G3A BABc | d2 g2 d3 c | B2 d2 ABBA |1 G6 D2 :|2 G6 Bd ||
g2 d2 dedB | c2 e2 d3 c | B2 G2 G2 AB | c2 A2 A2 d2 |
g2 d2 dedB | c2 e2 d3 c | B2 d2 ABBA |1 G6 Bd :|2 G8 |]
